src/assets/filled/Dent.svg

<?xml version="1.0" encoding="UTF-8"?>
<svg width="24" height="24" viewBox="0 0 24 24" xmlns="http://www.w3.org/2000/svg">
 <path d="m12 2c-5.52 0-10 4.48-10 10s4.48 10 10 10 10-4.48 10-10-4.48-10-10-10zm3.38 10.43 1.46 0.84c0.63 0.36 0.84 1.17 0.48 1.8s-1.17 0.84-1.8 0.48l-1.46-0.84c-0.33-0.19-0.75 0.05-0.75 0.43v1.68c0 0.72-0.59 1.32-1.32 1.32s-1.32-0.59-1.32-1.32v-1.68c0-0.38-0.42-0.63-0.75-0.43l-1.46 0.84c-0.63 0.36-1.44 0.15-1.8-0.48s-0.15-1.44 0.48-1.8l1.46-0.84c0.33-0.19 0.33-0.67 0-0.87l-1.46-0.84c-0.63-0.36-0.84-1.17-0.48-1.8s1.17-0.84 1.8-0.48l1.46 0.84c0.33 0.19 0.75-0.04999 0.75-0.42999v-1.68c0-0.72 0.59-1.32 1.32-1.32s1.32 0.58999 1.32 1.32v1.68c0 0.38 0.42 0.62999 0.75 0.42999l1.46-0.84c0.63-0.36 1.44-0.15 1.8 0.48s0.15 1.44-0.48 1.8l-1.46 0.84c-0.33 0.2-0.33 0.68 0 0.87z"/>
</svg>

<svg width="24" height="24" viewBox="0 0 24 24"  xmlns="http://www.w3.org/2000/svg">
<path d="M12 2C6.48 2 2 6.48 2 12C2 17.52 6.48 22 12 22C17.52 22 22 17.52 22 12C22 6.48 17.52 2 12 2ZM15.38 12.43L16.84 13.27C17.47 13.63 17.68 14.44 17.32 15.07C16.96 15.7 16.15 15.91 15.52 15.55L14.06 14.71C13.73 14.52 13.31 14.76 13.31 15.14V16.82C13.31 17.54 12.72 18.14 11.99 18.14C11.26 18.14 10.67 17.55 10.67 16.82V15.14C10.67 14.76 10.25 14.51 9.92 14.71L8.46 15.55C7.83 15.91 7.02 15.7 6.66 15.07C6.3 14.44 6.51 13.63 7.14 13.27L8.6 12.43C8.93 12.24 8.93 11.76 8.6 11.56L7.14 10.72C6.51 10.36 6.3 9.55 6.66 8.92C7.02 8.29 7.83 8.08 8.46 8.44L9.92 9.28C10.25 9.47 10.67 9.23001 10.67 8.85001V7.17C10.67 6.45 11.26 5.85001 11.99 5.85001C12.72 5.85001 13.31 6.44 13.31 7.17V8.85001C13.31 9.23001 13.73 9.48 14.06 9.28L15.52 8.44C16.15 8.08 16.96 8.29 17.32 8.92C17.68 9.55 17.47 10.36 16.84 10.72L15.38 11.56C15.05 11.76 15.05 12.24 15.38 12.43Z" />
</svg>
